X: 8
T: The Little Fair Child
M: 6/8
L: 1/8
B: "O'Neill's 8"
N: "Tenderly" "setting 2" "collected by J. O'Neill"
Z: "Transcribed by Norbert Paap, norbertp@bdu.uva.nl"
K:D
A/A/ | d>ed cde | f>ed e2 f/-e/ | d>-cB/-G/ FGA/-B/ | c2 A A2 A/A/ |
d>ed cde | f2 d e2 f/-e/ | dcA G2 A/-G/ | FDD D2 ||
K:Dm
D/E/ | (F>GA/B/) cAA | BGG cAG | (F>GA/B/) cAG | Add d2 D/-E/ |
(F>GA/B/) cAG | Ade f-ge/-d/ | cAF G>(BA/G/) | FDD D2 ||


